X: 35572
T: Ryan's Fancy
R: jig
M: 6/8
K: Eminor
B|BEE FEE|BEE FEF|DFF AFF|DFF AFA|
BEE FEE|BEE FEF|AFA ^cBc|AGF E2:|
e|efe B^cd|ede gfe|ded AFA|d^cd fed|
efe B^cd|ede gfe|d^cd AGF|GFG E2:|

